packages/icons/src/SVG/line-chart.svg

<svg width="12" height="12" viewBox="0 0 12 12" >
<path fill-rule="evenodd" clip-rule="evenodd" d="M10.5 4C11.3284 4 12 3.32843 12 2.5C12 1.67157 11.3284 1 10.5 1C9.67157 1 9 1.67157 9 2.5C9 2.93533 9.18545 3.32734 9.48165 3.60135L7.59886 8.00321C7.56618 8.00107 7.53322 8 7.5 8C7.34305 8 7.19174 8.0241 7.04954 8.06881L5.74569 6.33589C5.90629 6.09703 6 5.80946 6 5.5C6 4.67157 5.32843 4 4.5 4C3.67157 4 3 4.67157 3 5.5C3 5.86401 3.12966 6.19773 3.34533 6.45752L1.80163 9.03033L1.79617 9.02922C1.70043 9.01005 1.60139 8.99999 1.5 8.99999C0.671578 8.99999 0 9.67156 0 10.5C0 11.3284 0.671566 12 1.5 12C2.32843 12 3 11.3284 3 10.5C3 10.1352 2.8698 9.8009 2.65336 9.54089L4.19292 6.96854C4.29205 6.98916 4.39477 7 4.5 7C4.65427 7 4.80309 6.97672 4.94316 6.93346L6.25397 8.6646C6.09357 8.90336 6 9.19075 6 9.5C6 10.3284 6.67157 11 7.5 11C8.32843 11 9 10.3284 9 9.5C9 9.06436 8.81429 8.67211 8.51774 8.39807L10.4008 3.99677C10.4336 3.99891 10.4667 4 10.5 4ZM5.25 5.5C5.25 5.91421 4.91421 6.25 4.5 6.25C4.08579 6.25 3.75 5.91421 3.75 5.5C3.75 5.08579 4.08579 4.75 4.5 4.75C4.91421 4.75 5.25 5.08579 5.25 5.5ZM2.25 10.5C2.25 10.9142 1.91421 11.25 1.5 11.25C1.08579 11.25 0.75 10.9142 0.75 10.5C0.75 10.0858 1.08579 9.75 1.5 9.75C1.91421 9.75 2.25 10.0858 2.25 10.5ZM8.25 9.50001C8.25 9.91422 7.91421 10.25 7.5 10.25C7.08579 10.25 6.75 9.91422 6.75 9.50001C6.75 9.0858 7.08579 8.75001 7.5 8.75001C7.91421 8.75001 8.25 9.0858 8.25 9.50001ZM11.25 2.5C11.25 2.91421 10.9142 3.25 10.5 3.25C10.0858 3.25 9.75 2.91421 9.75 2.5C9.75 2.08579 10.0858 1.75 10.5 1.75C10.9142 1.75 11.25 2.08579 11.25 2.5Z" />
</svg>

<!-- Generated by IcoMoon.io -->
<svg version="1.1" xmlns="http://www.w3.org/2000/svg" width="12" height="12" viewBox="0 0 12 12">
<title>line-chart</title>
<path d="M10.5 4c0.828 0 1.5-0.672 1.5-1.5s-0.672-1.5-1.5-1.5c-0.828 0-1.5 0.672-1.5 1.5 0 0.435 0.185 0.827 0.482 1.101l-1.883 4.402c-0.033-0.002-0.066-0.003-0.099-0.003-0.157 0-0.308 0.024-0.45 0.069l-1.304-1.733c0.161-0.239 0.254-0.526 0.254-0.836 0-0.828-0.672-1.5-1.5-1.5s-1.5 0.672-1.5 1.5c0 0.364 0.13 0.698 0.345 0.958l-1.544 2.573-0.005-0.001c-0.096-0.019-0.195-0.029-0.296-0.029-0.828 0-1.5 0.672-1.5 1.5s0.672 1.5 1.5 1.5 1.5-0.672 1.5-1.5c0-0.365-0.13-0.699-0.347-0.959l1.54-2.572c0.099 0.021 0.202 0.031 0.307 0.031 0.154 0 0.303-0.023 0.443-0.067l1.311 1.731c-0.16 0.239-0.254 0.526-0.254 0.835 0 0.828 0.672 1.5 1.5 1.5s1.5-0.672 1.5-1.5c0-0.436-0.186-0.828-0.482-1.102l1.883-4.401c0.033 0.002 0.066 0.003 0.099 0.003zM5.25 5.5c0 0.414-0.336 0.75-0.75 0.75s-0.75-0.336-0.75-0.75c0-0.414 0.336-0.75 0.75-0.75s0.75 0.336 0.75 0.75zM2.25 10.5c0 0.414-0.336 0.75-0.75 0.75s-0.75-0.336-0.75-0.75c0-0.414 0.336-0.75 0.75-0.75s0.75 0.336 0.75 0.75zM8.25 9.5c0 0.414-0.336 0.75-0.75 0.75s-0.75-0.336-0.75-0.75c0-0.414 0.336-0.75 0.75-0.75s0.75 0.336 0.75 0.75zM11.25 2.5c0 0.414-0.336 0.75-0.75 0.75s-0.75-0.336-0.75-0.75c0-0.414 0.336-0.75 0.75-0.75s0.75 0.336 0.75 0.75z"></path>
</svg>
